icons/fleep-logo.svg

<?xml version="1.0" encoding="UTF-8"?>
<svg width="512px" height="165px" viewBox="0 0 512 165" version="1.1" xmlns="http://www.w3.org/2000/svg" xmlns:xlink="http://www.w3.org/1999/xlink" preserveAspectRatio="xMidYMid">
    <g>
        <path d="M112.326102,1.42108547e-14 C128.539141,1.42108547e-14 141.682457,13.1394683 141.682457,29.3685393 L141.682457,29.3685393 L141.682457,114.047251 C141.682457,130.266703 128.544272,143.41579 112.326102,143.41579 L112.326102,143.41579 L99.2302395,143.41579 L75.5727839,164.1446 L75.5727839,143.41579 L29.3569966,143.41579 C13.1433159,143.41579 -1.42108547e-14,130.276322 -1.42108547e-14,114.047251 L-1.42108547e-14,114.047251 L-1.42108547e-14,29.3685393 C-1.42108547e-14,13.148446 13.1388271,1.42108547e-14 29.3569966,1.42108547e-14 L29.3569966,1.42108547e-14 Z M485.401073,43.7071685 C503.745669,43.7071685 512,55.2377092 512,76.3281911 L512,78.1641256 C512,107.380686 494.051704,115.765834 473.220934,115.765834 C470.337818,115.765834 467.191143,115.633093 464.047033,115.239357 L464.047033,127.55801 L472.823351,127.55801 L472.823351,142.099278 L435.488408,142.099278 L435.488408,127.55801 L444.26665,127.55801 L444.26665,59.5598184 L435.488408,59.5598184 L435.488408,45.0185503 L464.047033,45.0185503 L464.047033,50.3904061 C470.465429,46.4588258 476.231661,43.7071685 485.401073,43.7071685 Z M103.670341,29.2460582 L41.4685212,29.2460582 L41.4685212,44.5452986 L49.6529543,44.5452986 L49.6529543,103.193242 L41.4685212,103.193242 L41.4685212,118.492482 L76.6616476,118.492482 L76.6616476,103.193242 L67.6583223,103.193242 L67.6583223,81.0940539 L88.9379766,81.0940539 L88.9379766,65.7948135 L67.6583223,65.7948135 L67.6583223,44.5452986 L88.1197257,44.5452986 L88.1197257,52.1949187 L103.670341,52.1949187 L103.670341,29.2460582 Z M325.007218,44.3830591 C344.409256,44.3830591 356.179629,54.6002943 356.700334,78.1410402 L356.700334,86.5479914 L312.3301,86.5479914 C314.273125,97.2872142 321.773331,100.389001 334.578702,100.389001 C343.246006,100.389001 351.138023,99.0962157 355.403701,98.3209293 L355.428069,112.729456 C355.428069,112.729456 348.787959,113.787289 341.76238,114.601006 L341.008449,114.687197 C336.856851,115.155455 332.648967,115.522796 329.664707,115.522796 C305.34611,115.522796 291.373642,105.435095 291.373642,80.9850393 L291.373642,78.7899978 C291.373642,58.0894035 302.373217,44.3830591 325.007218,44.3830591 Z M398.205407,44.3830591 C417.606162,44.3830591 429.377176,54.6002943 429.894675,78.1410402 L429.894675,86.5479914 L385.527006,86.5479914 C387.470673,97.2872142 394.972803,100.389001 407.774967,100.389001 C416.444195,100.389001 424.331082,99.0962157 428.600607,98.3209293 L428.626258,112.729456 C428.626258,112.729456 427.130645,112.967704 424.808062,113.305041 L424.297951,113.378793 C422.208827,113.679463 419.547221,114.045631 416.734202,114.389662 L416.028037,114.475158 C415.67362,114.517624 415.317387,114.559631 414.960158,114.601006 L414.206237,114.687197 C413.828825,114.729766 413.45095,114.771501 413.073573,114.812201 L412.319769,114.892164 C408.807775,115.258337 405.395045,115.522796 402.863538,115.522796 C378.54494,115.522796 364.574396,105.435095 364.574396,80.9850393 L364.574396,78.7899978 C364.574396,58.0894035 375.571406,44.3830591 398.205407,44.3830591 Z M277.563413,18.0406375 L277.563413,95.8905445 C277.563413,100.488799 280.164864,100.593757 282.644802,100.104767 L282.953964,100.040832 C283.827015,99.8525154 284.670592,99.6100775 285.36373,99.4867445 L285.36373,113.740086 L285.322048,113.740086 C267.336559,118.57264 257.616943,113.709305 257.596423,95.3140495 L257.596423,18.0406375 L277.563413,18.0406375 Z M246.439738,18.0316598 L246.439738,44.2753271 L229.516821,44.2753271 L229.516821,34.8410734 L206.063928,34.8410734 L206.063928,58.2946075 L229.516821,58.2946075 L229.516821,75.3509071 L206.063928,75.3509071 L206.063928,98.8012349 L215.497541,98.8012349 L215.497541,115.479831 L175.875856,115.479831 L175.875856,98.8012349 L185.310751,98.8012349 L185.310751,34.8410734 L175.875856,34.8410734 L175.875856,18.0316598 L246.439738,18.0316598 Z M477.278201,59.9567599 C471.905063,59.9567599 467.056477,62.0504819 464.047033,64.5392216 L464.047033,99.1257137 C466.014426,99.9138253 469.154047,100.436454 473.089475,100.436454 C483.436886,100.436454 491.292993,94.670222 491.292993,79.0817722 L491.292993,77.3798616 C491.292993,65.715297 486.185979,59.9567599 477.278201,59.9567599 Z M325.265647,59.5110824 C316.856772,59.5110824 312.718064,64.2981069 312.071671,74.3896546 L338.0723,74.3896546 C337.942765,64.4308482 333.542422,59.5110824 325.265647,59.5110824 Z M398.463836,59.5110824 C390.054319,59.5110824 385.919459,64.2981069 385.268578,74.3896546 L411.271771,74.3896546 C411.140954,64.4308482 406.738046,59.5110824 398.463836,59.5110824 Z" fill="#3E81DE"></path>
    </g>
</svg>

<svg xmlns="http://www.w3.org/2000/svg" viewBox="0 0 512 164.145">
  <path fill="#3e81de" d="M112.326 0c16.213 0 29.356 13.14 29.356 29.369v84.678c0 16.22-13.138 29.369-29.356 29.369H99.23l-23.657 20.729v-20.73H29.357C13.143 143.416 0 130.277 0 114.048V29.37C0 13.149 13.139 0 29.357 0zm373.075 43.707c18.345 0 26.599 11.53 26.599 32.621v1.836c0 29.217-17.948 37.602-38.78 37.602-2.882 0-6.029-.133-9.173-.527v12.319h8.776v14.541h-37.335v-14.541h8.779V59.56h-8.779V45.019h28.559v5.371c6.418-3.931 12.185-6.683 21.354-6.683zm-381.73-14.46H41.468v15.298h8.184v58.648h-8.184v15.3h35.193v-15.3h-9.004V81.094h21.28v-15.3h-21.28V44.546H88.12v7.65h15.55zm221.336 15.136c19.402 0 31.173 10.217 31.693 33.758v8.407h-44.37c1.943 10.74 9.443 13.841 22.249 13.841 8.667 0 16.559-1.293 20.825-2.068l.024 14.408s-6.64 1.058-13.666 1.872l-.754.086c-4.151.468-8.359.836-11.343.836-24.319 0-38.291-10.088-38.291-34.538V78.79c0-20.7 11-34.407 33.633-34.407zm73.198 0c19.401 0 31.172 10.217 31.69 33.758v8.407h-44.368c1.944 10.74 9.446 13.841 22.248 13.841 8.67 0 16.556-1.293 20.826-2.068l.025 14.408s-1.495.239-3.818.576l-.51.074c-2.09.3-4.75.667-7.564 1.01l-.706.086c-.354.043-.71.085-1.068.126l-.754.086c-.377.043-.755.084-1.132.125l-.754.08c-3.512.366-6.925.63-9.457.63-24.318 0-38.289-10.087-38.289-34.537V78.79c0-20.7 10.997-34.407 33.631-34.407zM277.563 18.041v77.85c0 4.598 2.602 4.703 5.082 4.214l.309-.064c.873-.188 1.717-.43 2.41-.554v14.253h-.042c-17.985 4.833-27.705-.03-27.726-18.426V18.041zm-31.123-.01v26.244h-16.923v-9.434h-23.453v23.454h23.453V75.35h-23.453V98.8h9.434v16.679h-39.622V98.8h9.435v-63.96h-9.435v-16.81zm230.838 41.926c-5.373 0-10.222 2.093-13.231 4.582v34.587c1.967.788 5.107 1.31 9.042 1.31 10.348 0 18.204-5.766 18.204-21.354V77.38c0-11.665-5.107-17.423-14.015-17.423zm-152.012-.446c-8.41 0-12.548 4.787-13.194 14.879h26c-.13-9.96-4.53-14.879-12.806-14.879zm73.198 0c-8.41 0-12.545 4.787-13.195 14.879h26.003c-.131-9.96-4.534-14.879-12.808-14.879z"/>
</svg>
